SVG/110-stage-blog.svg

<?xml version="1.0" encoding="UTF-8" standalone="no"?>
<svg width="14px" height="15px" viewBox="0 0 14 15" version="1.1" xmlns="http://www.w3.org/2000/svg" xmlns:xlink="http://www.w3.org/1999/xlink">
    <!-- Generator: Sketch 3.8.2 (29753) - http://www.bohemiancoding.com/sketch -->
    <title>110-stage-blog</title>
    <desc>Created with Sketch.</desc>
    <defs></defs>
    <g id="Page-1" stroke="none" stroke-width="1" fill="none" fill-rule="evenodd">
        <g id="110-stage-blog" fill="#000000">
            <g id="Layer_2">
                <g id="Icons">
                    <path d="M13,0 L1,0 C0.44771525,-3.38176876e-17 6.76353751e-17,0.44771525 0,1 L0,11 C6.76353751e-17,11.5522847 0.44771525,12 1,12 L3,12 C2.89742408,12.4392925 2.75344707,12.8678752 2.57,13.28 C2.42915771,13.4847881 2.42915771,13.7552119 2.57,13.96 C2.57,13.96 2.68,14.1 2.76,14.11 C2.85985898,14.1175106 2.96014102,14.1175106 3.06,14.11 C4.49499865,13.6622729 5.831988,12.9462709 7,12 L13,12 C13.5522847,12 14,11.5522847 14,11 L14,1 C14,0.44771525 13.5522847,3.38176876e-17 13,0 L13,0 Z M13,11 L6.64,11 L6.38,11.2 C6.08,11.43 5.69,11.71 5.26,12 C4.80795345,12.2971373 4.33694713,12.564375 3.85,12.8 C3.93742057,12.538213 4.00757123,12.2709724 4.06,12 C4.13213443,11.671047 4.17563043,11.3364624 4.19,11 L1,11 L1,1 L13,1 L13,11 Z M11.88,3 C11.88,3.27614237 11.6561424,3.5 11.38,3.5 L2.62,3.5 C2.34385763,3.5 2.12,3.27614237 2.12,3 C2.12,2.72385763 2.34385763,2.5 2.62,2.5 L11.38,2.5 C11.6561424,2.5 11.88,2.72385763 11.88,3 L11.88,3 Z M11.88,6 C11.88,6.27614237 11.6561424,6.5 11.38,6.5 L2.62,6.5 C2.34385763,6.5 2.12,6.27614237 2.12,6 C2.12,5.72385763 2.34385763,5.5 2.62,5.5 L11.38,5.5 C11.6561424,5.5 11.88,5.72385763 11.88,6 L11.88,6 Z M11.88,9 C11.88,9.27614237 11.6561424,9.5 11.38,9.5 L2.62,9.5 C2.34385763,9.5 2.12,9.27614237 2.12,9 C2.12,8.72385763 2.34385763,8.5 2.62,8.5 L11.38,8.5 C11.6561424,8.5 11.88,8.72385763 11.88,9 L11.88,9 Z" id="Shape"></path>
                </g>
            </g>
        </g>
    </g>
</svg>

<svg xmlns="http://www.w3.org/2000/svg" viewBox="0 0 14 14.13"><title>Asset 1</title><g id="Layer_2" data-name="Layer 2"><g id="Icons"><path d="M13,0H1A1,1,0,0,0,0,1V11a1,1,0,0,0,1,1H3a7.14,7.14,0,0,1-.43,1.28.6.6,0,0,0,0,.68s.11.14.19.15a2,2,0,0,0,.3,0A11.88,11.88,0,0,0,7,12h6a1,1,0,0,0,1-1V1A1,1,0,0,0,13,0Zm0,11H6.64l-.26.2c-.3.23-.69.51-1.12.8a12.4,12.4,0,0,1-1.41.8,6.31,6.31,0,0,0,.21-.8,5.83,5.83,0,0,0,.13-1H1V1H13ZM11.88,3a.5.5,0,0,1-.5.5H2.62a.5.5,0,0,1,0-1h8.76A.5.5,0,0,1,11.88,3Zm0,3a.5.5,0,0,1-.5.5H2.62a.5.5,0,0,1,0-1h8.76A.5.5,0,0,1,11.88,6Zm0,3a.5.5,0,0,1-.5.5H2.62a.5.5,0,0,1,0-1h8.76A.5.5,0,0,1,11.88,9Z"/></g></g></svg>
